icons/vagina_alt.svg

<svg width="48" height="48" viewBox="0 0 48 48" fill="none" xmlns="http://www.w3.org/2000/svg">
<path d="M35.4343 6H37.2949C40.4209 13.8479 42.0078 20.1062 41.9999 25.8515C41.9922 31.4661 40.4623 36.5114 37.4956 42.0001H35.5138C38.7059 36.3419 40.278 31.3648 40.2856 25.8489C40.2932 20.288 38.7114 14.0907 35.4343 6Z" fill="black"/>
<path d="M10.705 6H12.5656C9.28846 14.0907 7.70668 20.288 7.71432 25.8489C7.72189 31.3648 9.29404 36.3419 12.4861 42.0001H10.5044C7.53757 36.5114 6.00774 31.4661 6.00003 25.8515C5.99214 20.1062 7.57899 13.8479 10.705 6Z" fill="black"/>
<path d="M23.1429 31.5463V42H24.8572V31.5461L31.8792 24.1731L30.667 22.9003L24 29.9006L17.3329 22.9003L16.1207 24.1731L23.1429 31.5463Z" fill="black"/>
<path d="M23 26V29C23 29.5523 23.4477 30 24 30C24.5523 30 25 29.5523 25 29V26C25 25.4477 24.5522 25 23.9999 25C23.4477 25 23 25.4477 23 26Z" fill="black"/>
</svg>

<svg
  xmlns="http://www.w3.org/2000/svg"
  width="24"
  height="24"
  viewBox="0 0 24 24"
  fill="none"
  stroke="currentColor"
  stroke-width="2"
  stroke-linecap="round"
  stroke-linejoin="round"
>
  <path d="M35.434 6h1.86c3.127 7.848 4.714 14.106 4.706 19.852-.008 5.614-1.538 10.66-4.504 16.148h-1.982c3.192-5.658 4.764-10.635 4.772-16.151C40.293 20.288 38.71 14.09 35.434 6" />
  <path d="M10.705 6h1.86c-3.277 8.09-4.858 14.288-4.85 19.849.007 5.516 1.579 10.493 4.771 16.151h-1.982C7.538 36.511 6.008 31.466 6 25.852 5.992 20.106 7.579 13.848 10.705 6" />
  <path d="M23.143 31.546V42h1.714V31.546l7.022-7.373-1.212-1.273-6.667 7-6.667-7-1.212 1.273z" />
  <path d="M23 26v3a1 1 0 1 0 2 0v-3a1 1 0 0 0-2 0" />
</svg>
